X:59
T:\0
M:2/4
L:1/4
V:1 stem=up
K:C clef=none
!/3! [] GG|dd|cd !/3! | GG|dd|cd !/3! | cG|AA|dA !/3! | Gd|cd|AG|]


%%postscript 0 0 M(r d l,)domovel_ambito

